!!!!SEGMENT: pl-sa--549-a-ix-29--039_anonim--kotylion.krn
!!!cenid: 18xx:493
!!!COM: Anonim
!!!COM-rismid: pe30004985
!!!CDT:
!!!CNT:
!!!OTL: Kotylion
!!!PDT:
!!!AGN: Secular; Cotillion
!!!SMS-siglum: PL-SA
!!!SMS-shelfmark: 549/A IX 29
!!!SMS-shelfwork: 039 W
!!!SMS-variant:
!!!SMS-altvar:
!!!NIFC-rismid: 1001068935
!!!URL-scan: http://bc.bdsandomierz.pl/dlibra/publication/1441/edition/1409/content
!!!ONB-nifc: Str. 29, s. 1-2
!!!key: D
**kern	**kern
*part2	*part1
*staff2	*staff1
*I"[piano]	*I"[piano]
*Ipiano	*Ipiano
*ICklav	*ICklav
*>[A,A,B,B,C,C]	*>[A,A,B,B,C,C]
*clefF4	*clefG2
*k[f#c#]	*k[f#c#]
*D:	*D:
*M3/8	*M3/8
*>A	*>A
!LO:TX:t=P:problem:znaki [C# F#]	!LO:TX:t=P:problem:znaki [cc# ff#]
!	!LO:TX:a:t=Kotylion
8r	8a/
=1	=1
4D/ 4DD/	4a/ 4f#/ 4d/
8D/ 8DD/	8a/ 8f#/ 8d/
=2	=2
4AA/ 4AAA/	4b/ 4g/ 4e/
8AA/ 8AAA/	8b/ 8g/ 8e/
=3	=3
!LO:N:vis=4	!LO:N:vis=16
8AA/	8e/L
8B/L 8G/ 8E/	16c#/L
.	16e/
8B/J 8G/ 8E/	16b/
.	16a/JJ
=4	=4
8D\L	8dd\L
8A\ 8F#\	16a\L
.	16dd\
8A\J 8F#\	16ff#\
.	16aa\JJ
=5	=5
4D/ 4DD/	4a/ 4f#/ 4d/
8D/ 8DD/	8a/ 8f#/ 8d/
=6	=6
4AA/ 4AAA/	4b/ 4g/ 4e/
8AA/ 8AAA/	8b/ 8g/ 8e/
=7	=7
!LO:N:vis=4	!
8AA/	8ee\L
8B/L 8G/ 8E/	16cc#\L
.	16ff#\
8B/J 8G/ 8E/	16bb\
.	16aa\JJ
=8	=8
!	!LO:SIC:v:s=4dd\
4F#\ 4D\	4ee\
=:|!|:	=:|!|:
*>B	*>B
!	!LO:N:vis=4
8r	8dd\
!!LO:LB:g=original
=9	=9
*^	*
8ryy	4AA/	8.bb\L
8g\L 8c#\ 8A\	.	.
.	.	16aa\L
8g\J 8c#\ 8A\	8ryy	16gg\
.	.	16ee\JJ
=10	=10	=10
8ryy	4D/	8dd/L
8d\L 8F#\	.	16f#/L
.	.	16a/J
8d\J 8F#\	8ryy	8dd/J
=11	=11	=11
8ryy	4AA/	8cc#/L
8c#\L 8A\	.	16f#/L
.	.	16g/J
8c#\J 8A\	8ryy	8cc#/J
=12	=12	=12
8ryy	4D/	8dd/L
8d\L 8F#\	.	16f#/L
.	.	16a/J
8d\J 8F#\	8ryy	8dd/J
=13	=13	=13
8ryy	4AA/	8.bb\L
8g\L 8c#\ 8B\ 8G\	.	.
.	.	16aa\L
8g\J 8c#\ 8B\ 8G\	8ryy	16gg\
.	.	16ee\JJ
=14	=14	=14
8ryy	4D/	8dd/L
8d\L 8F#\	.	16f#/L
.	.	16a/J
8d\J 8F#\	8ryy	8dd/J
=15	=15	=15
8ryy	4AA/	16a\LL
.	.	16b\
8B\L 8G\ 8E\	.	16cc#\
.	.	16dd\
8B\J 8G\ 8E\	8ryy	16ee\
.	.	16ff#\JJ
*v	*v	*
=16	=16
4F#\ 4D\	4dd\
=:|!|:	=:|!|:
*>C	*>C
8r	8dd\
=17	=17
8A\L	8cc#\L
8e\ 8c#\	8dd\
8e\J 8c#\	8dd#X\J
=18	=18
*rep	*
8A\L	8ee\L
8e\ 8c#\	8ff#\
8e\J 8c#\	8gg#X\J
*Xrep	*
=19	=19
*rep	*
!	!LO:N:vis=8.
8A\L	8ccc#\L
8e\ 8c#\	8bb\
8e\J 8c#\	8aa\J
*Xrep	*
=20	=20
*rep	*
.	8qbb/
8A\L	8aa\L
8e\ 8c#\	8gg#X\
8e\J 8c#\	8aa\J
*Xrep	*
=21	=21
8D\L	8.aa\L
8B\ 8F#\	.
.	16gg#X\K
8B\J 8F#\	8ff#\J
=22	=22
*rep	*
8D\L	8.ff#\L
8B\ 8F#\	.
.	16ee\K
8B\J 8F#\	8dd\J
*Xrep	*
=23	=23
!	!LO:N:vis=8
8E\L	8.ee\L
8d\ 8B\	.
.	16ff#\K
8d\J 8B\	8gg#X\J
=24	=24
4c#\ 4A\	4aa\
=:|!	=:|!
*-	*-
!!!system-decoration: {s1,s2}
!!!ENC: Marta Chmielewska
!!!END: 2020-06-17
